X:1
T:Je ne suis pas de ces gens
T:Je ne suis pas de ces gens
T:Anonymous
C:Anonymous
%%score [ 1 [ 2 3 ] 4 ]
L:1/8
Q:1/4=80
M:2/2
K:F
V:1 treble nm="Superius" snm="S"
V:2 treble-8 nm="Tenor 1" snm="T 1"
V:3 treble-8 nm="Tenor 2" snm="T 2"
V:4 bass nm="Bassus" snm="B"
V:1
 z8 | z8 | z8 | z8 | z4 G4 | A4 B4 | c4 A2 B2- | BA G4 F2 | G4 z2 G2 | B3 A G2 F2 | G2 E2 D4- | %11
w: ||||Je|ne suis|pas de ces|_ _ _ gens|la, qui|font deux ou trois|fois ce- la,|
 D4 z2 G2 | F3 F G2 A2 | D2 G2 F4 | z2 A2 B2 G2 | A2 c2 B2 A2- | A2 G2 A4 | z2 E2 F2 G2 | %18
w: _ qui|font deux ou trois|fois ce- la,|quant ilz sont|a- vec- qu'u- ne|_ da- me,|quant ilz sont|
 A3 G F2 E2- | ED D4 C2 | D8 | z2 D2 G2 G2 | F2 F2 G3 A | B4 A4 | z4 z2 D2 | A2 A2 G2 G2 | %26
w: a- vec- qu'u- ne|_ _ da- *|me,|crain- dant de|de- mou- rer in-|fa- me,|[crain-|dant de de- mou-|
 F2 F2 G4 | C4 z4 | z4 z2 F2 | G4 A4 | B4 z2 G2 | A4 B4 | c4 A2 B2- | BA G4 F2 | G4 z2 G2 | %35
w: rer in- fa-|me,]|je|fais ung|coup, je|fais ung|coup et puis|_ _ _ ho-|la, je|
 B3 A G2 F2 | G2 E2 D2 B2- | B2 A2 G4 | F2 B4 A2- | AG G4 F2 | G8- | G8- | G8 |] %43
w: ne suis pas de|ces gens la, qui|_ font deux|ou trois fois|_ _ _ ce-|la.|_||
V:2
 z8 | z8 | z8 | z8 | d4 e4 | f4 g4 | e2 f3 e d2- | d2 c2 d4 |"^b""^b" B2 B2 e3 e | d2 B2 c2 A2 | %10
w: ||||Je ne|suis pas|de ces _ _|_ gens _|la, qui font deux|ou trois fois ce-|
 G4 G3 A | Bc d4 c2 | d8 | z8 | z2 c2 d2 e2 | f3 e d2 c2 | B4 A2 A2 | B2 c2 d4 | c2 A2 B2 c2 | %19
w: la, [trois _|_ _ fois ce-|la,]||quant ilz sont|a- vec- qu'u- ne|da- me, quant|ilz sont a-|vec- qu'u- ne da-|
 A2 B3 A G2- | G2 F2 G4 | z4 G4 | d2 d2 c2 c2 | d3 e f4 | e4 z2 d2 | c2 d2 G2 G2 | B2 A2 G4 | z8 | %28
w: |* * me,|crain-|dant de de- mou-|rer in- fa-|me, je|fais ung coup et|puis ho- la,||
 z8 | z8 | d4 e4 | f4 g4 | e2 f3 e d2- | d2 c2 d4 |"^b" B2 B2 e3 e | d2 B2 c2 A2 | G4 z2 d2- | %37
w: ||je ne|suis pas|de ces _ _|_ gens _|la, qui font deux|ou trois fois ce-|la, je|
 d2 d2 B2 c2 | d4 z2 d2 | d2 c2 d4 | z2 d2 B2 B2 | c2 d2 G2 c2 |"^-natural" B8 |] %43
w: _ ne suis _|pas de|ces gens la,|qui font deux|ou trois fois ce-|la.|
V:3
 z4 G4 | A4 B4 | c4 A2 B2- |"^#" BA G4 F2 | G4 z4 | z2 d2 d2 d2 | c2 c2 d4 | G4 A4 | G8 | z8 | %10
w: Je|ne suis|pas de ces|_ _ _ gens|la,|je ne suis|pas de ces|gens _|la,||
 z2 G2 B3 A | G2 F2 G2 E2 | D4 z2 A2 | B2 c2 d3 c | B2 A2 G4 | F4 z4 | z8 | z4 D4 | E2 F2 D2 E2 | %19
w: qui font deux|fou trois fois ce-|la, quant|ilz sont a- vec-|qu'u- ne da-|me,||quant|ilz sont a- vec-|
 F4 G4 | A4 B3 A | G2 F2 E4 | D4 z2 C2 | G2 G2 F2 F2 | G3 A B4 | A2 A2 B2 c2 | d4 z2 G2 | A4 B4 | %28
w: qu'u- ne|da- * *||me crain-|dant de de- mou-|rer in- fa-|me, je fais ung|coup, je|fais ung|
 c4 A2 B2- |"^#" BA G4 F2 | G4 z4 | z2 d2 d2 d2 | c2 c2 d4 | G4 A4 | G8 | z8 | z2 G2 B3 A | %37
w: coup et puis|_ _ _ ho-|la,|je fais ung|coup et puis|ho- *|la,||je ne suis|
 G2 F2 G2 E2 | D2 d3 c A2 | B2 G2 A4 | B3 A G2 F2 |"^b""^b" E2 D2 E4 | D8 |] %43
w: pas de ces gens|la, qui font deux|ou trois fois|ce- * * *||la.|
V:4
 D,4 E,4 | F,4 G,4 | E,2 F,3 E,D,C, | B,,2 C,2 A,,4 | G,,4 z2 G,2 | D,4 G,4 | C,2 F,4 G,2 | %7
w: ne suis|pas de|ces gens _ _ _|_ _ la,|je ne|suis pas|de ces gens|
"^b" E,4 D,4 | G,,4 C,4 | G,,4 z4 | z8 | z4 z2 G,2 | B,3 A, G,2 F,2 | G,2 E,2 D,4 | z8 | %15
w: la, _|_ _|qui||font|deux ou trois fois|ce- la, quant||
 z4 z2 C,2 | D,2 E,2 F,3 E, | D,2 C,2 B,,4 | A,,2 D,4 C,2 |"^b" D,4 E,4 | D,4 G,,4 | z8 | z8 | %23
w: ilz|sont a- vec- qu'u-|ne da- me,-|a- vec qu'u-|ne da-|me, crain-|||
 z2 G,,2 D,2 D,2 | C,2 C,2 D,3 E, |"^b" F,4 E,4 | D,2 D,2 E,4 | F,4 G,4 | E,2 F,3 E,D,C, | %29
w: dant de de-|mou- rer in- fa-|me, *|je fais ung|coup et|puis ho- _ _ _|
 B,,2 C,2 A,,4 | G,,4 z2 G,2 | D,4 G,4 | C,2 F,4 G,2 | E,4 D,4 | G,,4 z4 | z8 |"^#" z8 | %37
w: _ _ la,|je fais|ung coup|et puis ho-|la, *|je|||
 z4 z2 G,2 | B,3 A, G,2 F,2 | G,2 E,2 D,4 |"^b" z2 B,,2 E,3 D, | C,2 B,,2 C,2 C,2 | G,,8 |] %43
w: ne|suis pas de ces|gens la, qui|font deux ou|trois fois ce- la.||

